X: 36864
T: Ships In Full Sail, The
R: jig
M: 6/8
K: Amajor
|:EAA cAA|eAA cee|faf ecA|BcB BAF|
EAA cAA|eAA cee|f/g/af ecA|1 BcB A2F:|2 BcB A2c||
|:eaa c'aa|bab c'af|eaa c'aa|bc'b baf|
eaa c'aa|bab c'ae|f/g/af ecA|1 BcB A2c:|2 BcB Acd||
|:e2e ecA|f2e faf|efe ecA|BcB Bcd|
e2e ecA|faf fef|ecA BAB|1 cAA Acd:|2 cAA A2F||


